teeny/solid/windows.svg

<svg width="15" height="15" viewBox="0 0 15 15" fill="none" xmlns="http://www.w3.org/2000/svg">
<path d="M14.8143 0.111171C14.9318 0.206099 15 0.349008 15 0.500004V7H7V1.5958L14.3952 0.0111032C14.5429 -0.0205349 14.6969 0.0162435 14.8143 0.111171Z" fill="black"/>
<path d="M6 1.81008L0.395235 3.0111C0.1647 3.0605 0 3.26424 0 3.5V7H6V1.81008Z" fill="black"/>
<path d="M0 8V12.5C0 12.7488 0.182965 12.9598 0.429289 12.995L6 13.7908V8H0Z" fill="black"/>
<path d="M7 13.9337L14.4293 14.995C14.5728 15.0155 14.7181 14.9727 14.8276 14.8777C14.9371 14.7828 15 14.645 15 14.5V8H7V13.9337Z" fill="black"/>
</svg>

<svg viewBox="0 0 15 15" xmlns="http://www.w3.org/2000/svg"><g><path d="M14.81.11c.11.09.18.23.18.38v6.49h-8V1.57l7.39-1.59c.14-.04.3 0 .41.1Z"/><path d="M6 1.81L.39 3.01c-.24.04-.4.25-.4.48v3.5h6V1.8Z"/><path d="M0 8v4.5c0 .24.18.45.42.49l5.57.79v-5.8h-6Z"/><path d="M7 13.93l7.42 1.06c.14.02.28-.03.39-.12 .1-.1.17-.24.17-.38v-6.5h-8v5.93Z"/></g></svg>
